X:1
T:Dette Norge, vort hjem!
T:Dette Norge, vort hjem!
T:Bjørnstjerne Bjørnson
T:Kristian Wendelborg
C:Kristian Wendelborg
%%score [ 1 2 3 4 ]
L:1/8
Q:1/4=90
M:4/4
K:G
V:1 treble-8 nm="T1"
V:2 treble-8 nm="T2"
V:3 bass nm="B1"
V:4 bass nm="B2"
V:1
"^Andantino con moto. Festligt og udtryksfuldt"!f! G3/2 G/ | d4 B2 G3/2 G/ | A6 z2 | %3
w: Ik- ke|sandt? ja ik- ke|sandt?|
 !^!E3 F D2 G B | d3 e d2 B2 | !^!E3 F D2 G B | d3/2 ^c/ d e (d=c) B A | G3/2 F/ G A B2 G E | %8
w: Det- te Nor- ge med|skib og baa- der,|dy- be malm- lei- er,|ful- de sil- de- kor- * ge, de|ra- re sæ- ter- vei- er og|
 A6 G2 | G2 F2 z2!p!"^let." D2 | G2 B4 G2 | B2 d4!mf! e2 | (dc) (BA) G2 F G | B2 E4 A2 | F4 E4 | %15
w: tøm- mer-|flaa- der, og|eng- slaat og|ku- draat, og|he- * ste- * drif- ter og|sma- ler og|an- det|
!p! A8 |!mf! (DE)"^cresc." F G (AB) c d |!f! e4 d2 e2 | (dc) B A G2!mf! (FG) | A4 E4 | %20
w: smaat,|Ren- * jagt og an- * dre be-|drif- ter, det|er _ nu saa kjært, som _|det er|
 B2!f! B3/2 B/ B2 B3/2 B/ |"^mildt." e4 d2 c2 | B4 A4 |!>(! G4 F4 | E4!>)! z2 ||[M:3/4]!p! E2 | %26
w: godt, og saa er det det|vak- re- ste|hjem et|folk har|faat.|End|
 A3/2 A/ A2 B2 | c2 B2 E E | A ^G!<(! A B c!<)! d | e2 B2!mf! B2 | B3 A G2 | F2 E2!p! B2 | %32
w: gjei- ta da om|vaa- ren un- der|fug- le- spil- let om- kring|gaar- den? Det|sort- ner i|aa- ser, det|
 B3 A G2 | F4!mf! c2 |"^bredt" (c3 B) A2 | G2 F2 d2 |!<(! (d3 c) A2!<)! | B4!ff! B3/2 B/ || %38
w: hvid- ner i|fjeld, og|el- * ven|sku- rer i|bak- * ke-|held. Det- te|
[M:4/4]"^Langsommere. Med varme." !^!e2 e4 B3/2 B/ | !^!d2 d4!mf! B2 ||[M:3/4]"^a tempo" B4 A2 | %41
w: Nor- ge, vi for-|staar det, at|en kan|
 G2 G2 A2 |!p! B2!>(! B4- | B6!>)! |!f! !^!E4"^Med inderlighed og kraft." F2 | !^!D3 G B2 | %46
w: li- de lidt|for det.|_|Det- te|Nor- ge, vort|
 !^!d4 e2 | d6 |!ff! (d2 e2) f2 | g2 d2 e2 |!mf! (B6 |!<(! c4) A2!<)! |!f!!<(! d6- | d6!<)! | %54
w: hjem, vort|hjem,|det- * te|Nor- ge, vort|hjem,|_ vort|hjem,|_|
!ff! (!^!d2 e2) f2 | !^!g2 d2!mf! e2 | (B6 | c6- | c2) z2!p! A2 |"^mildt." B6- | B2 z2 |] %61
w: det- * te|Nor- ge, vort|hjem,|_|* vort|hjem.!|_|
V:2
!f! G3/2 G/ | B4 G2 G3/2 G/ | F6 z2 | !^!E3 F D2 G B | B3 c B2 G2 | !^!E3 F D2 G B | %6
w: Ik- ke|sandt? ja ik- ke|sandt?|Det- te Nor- ge med|skib og baa- der,|dy- be malm- lei- er,|
 B3/2 ^A/ B =c (B=A) G F | G3/2 F/ G A B2 G E | (F4 E2) E2 | E2 D2 z2!p! D2 | D2 G4 G2 | %11
w: ful- de sil- de- kor- * ge, de|ra- re sæ- ter- vei- er og|tøm- * mer-|flaa- der, og|eng- slaat og|
 G2 B4!mf! c2 | (BA) (GF) E2 F G | G2 E4 E2 | F4 E2 E2 |!pp! E z G z F z E z | %16
w: ku- draat, og|he- * ste- * drif- ter og|sma- ler og|an- det og|an- det smaat og|
!mf! (DE)"^cresc." F G (FG) A B |!f! c4 B2 A2 | (Bc) G A E2!mf! (FG) | A4 E4 | %20
w: Ren- * jagt og an- * dre be-|drif- ter, det|er _ nu saa kjært, som _|det er|
 B2!f! B3/2 B/ B2 B3/2 B/ | B4 B2 A2 | G4 F4 |!>(! E4 ^D4 | E4!>)! z2 ||[M:3/4]!p! E2 | %26
w: godt, og saa er det det|vak- re- ste|hjem et|folk har|faat.|End|
 E3/2 E/ E2 A2 | A2 ^G2 E E | E E!<(! A ^G A!<)! B | B2 ^G2!mf! =G2 | G3 F E2 | ^D2 E2!p! G2 | %32
w: gjei- ta da om|vaa- ren un- der|fug- le- spil- let om- kring|gaar- den? Det|sort- ner i|aa- ser, det|
 G3 F E2 | ^D4!mf! A2 | (A3 G) F2 | E2 F2 A2 |!<(! A4 F2!<)! | G4!ff! B3/2 B/ || %38
w: hvid- ner i|fjeld, og|el- * ven|sku- rer i|bak- ke-|held. Det- te|
[M:4/4] !^!B2 B4 B3/2 B/ | !^!B2 B4!mf! G2 ||[M:3/4] G4 F2 | E2 E2 E2 |!p! G2!>(! A2 G2 | %43
w: Nor- ge, vi for-|staar det, at|en kan|li- de, kan|li- de lidt|
 F2 F4!>)! |!f! !^!E4 F2 | !^!D3 G B2 | !^!B4 c2 | d6 |!ff! (d2 c2) c2 | B2 B2 c2 |!mf! (G6 | %51
w: for det.|Det- te|Nor- ge, vort|hjem, vort|hjem,|det- * te|Nor- ge, vort|hjem,|
!<(! A4) F2!<)! |!f!!<(! (G2 d4- | d6)!<)! |!ff! (!^!d2 c2) c2 | !^!B2 B2!mf! c2 | (G6 | A6- | %58
w: _ vort|hjem, _|_|det- * te|Nor- ge, vort|hjem,|_|
 A2) z2!p! F2 | G6- | G2 z2 |] %61
w: * vort|hjem.!|_|
V:3
!f! G,3/2 G,/ | G,4 G,2 E,3/2 E,/ | D,6 z2 | !^!E,3 F, D,2 G, G, | G,3 G, G,2 G,2 | %5
w: Ik- ke|sandt? ja ik- ke|sandt?|Det- te Nor- ge med|skib og baa- der,|
 !^!E,3 F, D,2 G, G, | G,3/2 G,/ G, G, (G,F,) G, D, | E,3/2 ^D,/ E, F, G,2 E, E, | D,6 ^C,2 | %9
w: dy- be malm- lei- er,|ful- de sil- de- kor- * ge, de|ra- re sæ- ter- vei- er og|tøm- mer-|
 D,2 D,2 z2!p! D,2 | B,,2 D,4 G,2 | G,2 G,4!mf! G,2 | (G,F,) (G,A,) E,2 E, E, | D,2 E,4 C,2 | %14
w: flaa- der, og|eng- slaat og|ku- draat, og|he- * ste- * drif- ter og|sma- ler og|
 D,4 E,2 E,2 |!pp! E, z E, z D, z ^C, z |!mf! D,2"^cresc." D, D, (A,G,) A, B, |!f! G,4 B,2 C2 | %18
w: an- det og|an- det smaat og|Ren- jagt og an- * dre be-|drif- ter, det|
 (B,A,) G, F, G,2!mf! E,2 | E,4 E,4 | B,,2!f! A,3/2 A,/ G,2 A,3/2 A,/ | G,4 F,2 F,2 | G,4 A,4 | %23
w: er _ nu saa kjært, som|det er|godt, og saa er det det|vak- re- ste|hjem et|
!>(! E,4 B,,4 | E,4!>)! z2 ||[M:3/4]!p! E,2 | C,3/2 C,/ C,2 D,2 | E,2 E,2 E, E, | %28
w: folk har|faat.|End|gjei- ta da om|vaa- ren un- der|
 E, E,!<(! E, E, E,!<)! A, | ^G,2 E,2!mf! E,2 | E,3 ^D, E,2 | B,,2 E,2!p! E,2 | E,3 ^D, E,2 | %33
w: fug- le- spil- let om- kring|gaar- den? Det|sort- ner i|aa- ser, det|hvid- ner i|
 B,,4!mf! F,2 | (F,3 G,) ^D,2 | E,2 F,2 F,2 |!<(! F,4 D,2!<)! | G,4!ff! B,3/2 B,/ || %38
w: fjeld, og|el- * ven|sku- rer i|bak- ke-|held. Det- te|
[M:4/4] !^!G,2 G,4 B,3/2 B,/ | !^!G,2 G,4!mf! G,2 ||[M:3/4] G,4 D,2 | E,2 E,2 E,2 | %42
w: Nor- ge, vi for-|staar det, at|en kan|li- de, kan|
!p! E,2!>(! F,2 E,2 | E,2 ^D,4!>)! |!f! !^!E,4 F,2 | !^!D,3 G, B,2 | !^!G,4 G,2 | %47
w: li- de lidt|for det.|Det- te|Nor- ge, vort|hjem, vort|
 B,2!ff! !^!A,2 C2 | !^!B,2 G,2 A,2 | G,2 G,2 G,2 |!mf! D,6 |!<(! D,4 D,2!<)! | D,2!ff! !^!D2 C2 | %53
w: hjem, Det- te|Nor- ge, vort|hjem, det- te|Nor-|ge, vort|hjem, det- te|
 !^!B,2 A,2 C2 | B,2 G,2 A,2 | !^!G,2 G,2!mf! G,2 | D,6- | D,6- | D,2 z2!p! D,2 | D,6- | D,2 z2 |] %61
w: Nor- ge, vort|hjem, det- te|Nor- ge, vort|hjem,|_|* vort|hjem.!|_|
V:4
!f! G,3/2 G,/ | G,4 G,2 E,3/2 E,/ | D,6 z2 | !^!E,3 F, D,2 G, G, | G,3 G, G,,2 G,2 | %5
w: Ik- ke|sandt? ja ik- ke|sandt?|Det- te Nor- ge med|skib og baa- der,|
 !^!E,3 F, D,2 G, G, | G,3/2 G,/ G, G, (G,F,) G, D, | E,3/2 ^D,/ E, F, G,2 E, E, | A,,6 A,,2 | %9
w: dy- be malm- lei- er,|ful- de sil- de- kor- * ge, de|ra- re sæ- ter- vei- er og|tøm- mer-|
 D,2 D,2 z2 z2 | z2!p! G,,2 G,,2 G,2 | z2 G,2 G,2 C,2 |!mf! D,2 D,2 E,2 E, E, | D,4 ^C,2 A,,2 | %14
w: flaa- der,|og eng- slaat|og ku- draat,|he- ste- drif- ter og|sma- ler og|
 D,4 E,2 D,2 |!pp! ^C, z A,, z B,, z C, z |!mf! D,2"^cresc." =C, B,, (D,B,) A, G, | %17
w: an- det og|an- det smaat og|Ren- jagt og an- * dre be-|
!f! C,4 G,2 F,2 | (G,F,) G, D, E,2!mf! E,2 | C,4 C,4 | B,,2!f! A,3/2 A,/ G,2 F,3/2 F,/ | %21
w: drif- ter, det|er _ nu saa kjært, som|det er|godt, og saa er det det|
 E,4 B,,2 D,2 | E,4 ^D,4 |!>(! E,4 B,,4 | E,4!>)! z2 ||[M:3/4]!p! E,2 | A,,3/2 A,,/ A,,2 A,,2 | %27
w: vak- re- ste|hjem et|folk har|faat.|End|gjei- ta da om|
 A,,2 E,2 E, D, | C, D,!<(! C, B,, A,,!<)! =F, | E,2 E,2!mf! E,2 | E,3 ^D, E,2 | B,,2 E,2!p! E,2 | %32
w: vaa- ren un- der|fug- le- spil- let om- kring|gaar- den? Det|sort- ner i|aa- ser, det|
 E,3 ^D, E,2 | B,,4!mf! ^D,2 | ^D,4 D,2 | E,2 F,2 D,2 |!<(! =D,4 D,2!<)! | G,4!ff! B,3/2 B,/ || %38
w: hvid- ner i|fjeld, og|el- ven|sku- rer i|bak- ke-|held. Det- te|
[M:4/4] !^!E,2 E,4 B,3/2 B,/ | !^!G,2 G,4!mf! G,2 ||[M:3/4] G,4 D,2 | E,2 E,2 C,2 | %42
w: Nor- ge, vi for-|staar det, at|en kan|li- de lidt|
!p! B,,2!>(! B,,4- | B,,6!>)! |!f! !^!E,4 F,2 | !^!D,3 G, B,2 | !^!G,4 C,2 | G,2!ff! !^!F,2 A,2 | %48
w: for det.|_|Det- te|Nor- ge, vort|hjem, vort|hjem, Det- te|
 !^!G,2 E,2 D,2 | E,2 G,2 C,2 |!mf! D,6 |!<(! C,4 C,2!<)! | B,,2!ff! !^!B,2 A,2 | !^!G,2 F,2 A,2 | %54
w: Nor- ge, vort|hjem, det- te|Nor-|ge, vort|hjem, det- te|Nor- ge, vort|
 G,2 E,2 D,2 | !^!E,2 G,2!mf! C,2 | D,6- | D,6- | D,2 z2!p! D,2 | G,,6- | G,,2 z2 |] %61
w: hjem, det- te|Nor- ge, vort|hjem,|_|* vort|hjem.!|_|

